X: 300
T: Trollens brudmarsch
C: Pelle Schenell
R: Marsch
O: Gnarp, Hälsingland
H: Om det regnar sägs det att man genom att spela denna låt alltid kan få regnet att sluta. Historien förtäljer emellertid ej hur lång tid det tar...
B: Jämför [[http://www.smus.se/earkiv/fmk/browselarge.php?lang=sw&katalogid=Hs+8&bildnr=00007|SMUS - katalog Hs8 bild 7]]
B: Jämför [[http://www.smus.se/earkiv/fmk/browselarge.php?lang=sw&katalogid=M+139b&bildnr=00032|SMUS - katalog M139b bild 32]]
B: Jämför [[http://www.smus.se/earkiv/fmk/browselarge.php?lang=sw&katalogid=J%E4+25&bildnr=00019|SMUS - katalog Jä25 bild 19]]
B: Jämför [[http://www.smus.se/earkiv/fmk/browselarge.php?lang=sw&katalogid=M+139b&bildnr=00032|SMUS - katalog M139b bild 32]]
M: 4/4
K: Gm
L: 1/8
d4 d^cde | d2 c2 B2 A2 | B2>A2 G2 ^F2 | G4> D4 |
G^FGA BABc | d^cd^f gfga | b2 bg a2 a^f |1 de d^c d4 :|2 gag^f g4 |]
f4 f=efg | f2e2 d2^c2 | d2>e2 d^cde | d6 D2 |
d4 d^cde | d2 c2 B2 A2 | B2>A2 G2 ^F2 | G4> F4 |
E4 EDEF | G2 G2 F2 E2 | D2>E2 D^CDE | D4> D4 |
G^FGA BABc | d^cd^f gfga | b2 bg a2 a^f | ga g^f g4 |
(:musicend:)


En annan nedteckning, med [[!ackord]]:

(:music:)
